X:1
T:Title
%%score [ ( 1 2 ) ( 3 4 ) ]
L:1/8
Q:1/4=120
M:none
K:C
V:1 treble nm="Midi_74"
V:2 treble 
V:3 bass nm="Midi_74"
V:4 bass 
V:1
"^Full"!f! c8 | G2 E2 |"^Psalm 104""^Benedic anima mea" C8 || %3
w: ~Praise~the~Lord|O my|soul:|
"^Chants: Robert Philip Goodenough,\nSydney Bevan, Sir Walter Parratt" e8 | (dc) B2 | A2 A2 A2 A2 | %6
w: O~Lord~my~God~thou~art~become~exceeding~glorious,~~thou~art|cloth'd * with|ma- jes- ty and|
 G8 ||"^Full"!f! G8 | E2 C2 C2 | G8 || d8 | e2 (dc) | G2 B2 | c8 |"^Dec"!mf! c8 | G2 G2 E2 E2 | %16
w: honour.|2~Thou~deckest~thyself~with~light~as~it|were with a|garment:|and~spreadest~out~the|hea- vens *|like a|curtain.|3~Who~layeth~the~beams~of~his|cham- bers in the|
 C8 | e8 | (dc) B2 | A2 A2 A2 | G8 |"^Can"!mf! G8 | E2 C2 | G8 || d8 | e2 e2 d2 c2 | G2 B2 | c8 | %28
w: waters:|and~maketh~the~clouds~his~chariot,~~~~and~walketh~up-|on * the|wings of the|wind.|4~He~maketh~his|an- gels|spirits:|and~his|mi- ni- sters a|flam- ing|fire.|
!mf!"^Dec" c8 | G2 G2 E2 E2 | C8 || e8 | d2 c2 B2 | A2 A2 A2 A2 | G8 |"^Can"!mf! G8 | E2 E2 C2 C2 | %37
w: 5~He~laid~the~foun-|da- tions of the|earth:|that~it|nev- er should|move at a- ny|time.|6~Thou~coveredst~it~with~the~deep|like as with a|
 G8 || d2 | e2 (dc) | G2 G2 B2 | c8 |"^Dec"!mf! c8 | G2 E2 | C8 ||!f! e8 | (dc) B2 | A2 A2 A2 | %48
w: garment.|the|wa- ters *|stand in the|hills.|7~At~thy~re-|buke they|flee:|at~the~voice~of~thy|thun * der|they are a-|
 G8 |"^Can"!mf! G8 | E2 E2 C2 | G8 || d8 | e2 d2 c2 | G2 B2 | c8 |]"^Dec"!mf! c8 | G2 E2 | C8 | %59
w: fraid.||||||||9~Thou~hast~set~them~their~bounds~which~they|shall not|pass:|
 e8 | (dc) B2 | A2 A2 A2 | G8 |"^Can"!mf! G8 | E2 C2 C2 C2 | G8 || d2 | e2 (dc) | G2 B2 | c8 | %70
w: neither~turn~a-|gain * to|co- ver the|earth.|10~He~sendeth~the|springs in- to the|rivers:|which|run a- *|mong the|hills.|
"^Dec""^Change chant"!mf! G8 | A2 d2 | B8 || B8 | A2 G2 | ^F2 E2 | D8 |!mf!"^Can" D8 | E2 A2 | %79
w: 11~All~beasts~of~the~field|drink there-|of:|and~the~wild|ass- es|quench their|thirst.|12~Beside~them~shall~the~fowls~of~the~air~have~their|ha- bi-|
 ^F8 || D2 | G2 c2 | B2 A2 | G8 |"^Dec"!mf! G8 | A2 d2 d2 | B8 || B8 | A2 G2 G2 | ^F2 F2 E2 | D8 | %91
w: tation:|and|sing a-|mong the|branches.|13~He~watereth~the|hills from a-|bove:|the~earth~is|fill'd with the|fruit of thy|works.|
!mf!"^Can" D8 | E2 A2 A2 | ^F8 || D2 D2 | G2 c2 c2 | B2 B2 A2 | G8 |"^Dec"!mf! G8 | A2 d2 | B8 | %101
w: 14~He~bringeth~forth|grass for the|cattle:|and green|herb for the|ser- vice of|man.|15~That~he~may~bring~food~out~of~the~earth,~~~~and~wine~that~maketh~glad~the|heart of|man:|
 B8 | A2 G2 | ^F2 F2 E2 | D8 |!mf!"^Can" D8 | E2 A2 | ^F8 || D8 | G2 G2 G2 c2 | B2 A2 | G8 | %112
w: and~oil~to~make~him~a~cheerful~countenance,~and|bread to|strength- en man's|heart.||||||||
"^Dec"!mp! G8 | A2 d2 d2 | B8 || B8 | A2 A2 G2 G2 | ^F2 F2 E2 E2 | D8 |"^Can"!mf! D8 | (E2 A2) | %121
w: 17~Wherein~the|birds make their|nests:|and~the|fir- trees are a|dwell- ing for the|stork.|||
 ^F8 || D8 | G2 c2 | B2 A2 A2 | G8 |"^Dec"!p! G8 | A2 d2 | B8 || B8 | A2 A2 G2 | ^F2 E2 | D8 | %133
w: |||||19~He~appointed~the~moon~for|cer- tain|seasons:|and~the~sun|know- eth his|go- ing|down.|
"^Can"!p! D8 | E2 A2 | ^F8 || D8 | G2 G2 c2 | B2 B2 A2 | G8 |"^Dec"!mf! G8 | A2 A2 d2 | B2 B2 | %143
w: |||||||21~The~lions~roaring|af- ter their|prey do|
 A2 G2 | ^F2 E2 | D8 |!mp!"^Can" D8 | E2 A2 | ^F8 || D2 | G2 c2 | B2 A2 A2 | G8 | %153
w: seek their|meat from|God.|22~The~sun~ariseth,~~~~and~they~get~them~a-|way to-|gether:|and|lay them|down in their|dens.|
"^2nd part"!p!"^Full" D8 | E2 A2 A2 | ^F2 | D2 D2 D2 | G2 G2 c2 | B2 A2 | G8 | %160
w: |||||||
"^Full""^Change chant"!f! G8 | A2 A2 A2 G2 G2 | c8 || c8 | d2 e2 | f2 f2 A2 | ^G8 ||"^Full"!f! E8 | %168
w: 24~O~Lord~how|ma- ni- fold are thy|works:|in~wisdom~hast~thou~made~them~all,~~~~the|earth is|full of thy|riches.|25~So~is~the~great~and|
 F2 E2 | A8 | G8 | c2 F2 | (E2 D2) | C8 |]"^2nd part""^Can"!mf! E8 | E2 | F2 F2 E2 E2 | A8 || G8 | %179
w: wide sea|also:|wherein~are~things~creeping~innumerable,~~~~both|small and|great *|beasts.|26~There~go~the~ships,|and|there is that Le-|viathan:|whom~thou~hast~made~to|
 c2 F2 | E2 E2 D2 | C8 |"^Dec"!mf! G8 | A2 G2 G2 | c8 || c8 | d2 e2 | f2 f2 A2 | ^G8 | %189
w: take his|pas- time there-|in.|27~These~wait|all up- on|thee:|that~thou~mayest|give them|meat in due|season.|
"^Can"!mf! E8 | F2 E2 | A8 || G8 | c2 F2 F2 | E2 D2 | C8 |]"^Dec"!p! G8 | A2 G2 G2 | c8 | c8 | %200
w: 28~When~thou~givest~it|them they|gather~it:|and~when~thou~openest~thy|hand, they are|fill'd with|good.|29~When~thou~hidest~thy|face they are|troubled.|when~thou~takest~away~their~breath~they~die,~~~and~are~|
 d2 e2 | f2 A2 A2 | ^G8 |!mf!"^Can" E8 | F2 E2 | A8 || G8 | c2 F2 | E2 E2 D2 | C8 |] %210
w: turn'd- a-|gain to their|dust.|30~When~thou~lettest~thy~breath~go~forth~they|shall be|made:|and~thou~shalt~re-|new the|face of the|earth.|
"^Change chant"!f!"^Full" c8 | G2 E2 | C8 | e2 | d2 c2 B2 | A2 A2 A2 | G8 |"^Full"!f! G8 | %218
w: 31~The~glorious~majesty~of~the~Lord~shall~en-|dure for|ever:|the|Lord shall re-|joice in his|works.|32~The~earth~shall|
 E2 E2 C2 C2 | G8 || d8 | e2 e2 (dc) | G2 B2 | c8 |"^Full"!f! c8 | G2 G2 E2 | C8 || e8 | d2 c2 B2 | %229
w: trem- ble at the|look~of~him:|if~he~do~but|touch the hills *|they shall|smoke.|33~I~will~sing~unto~the~Lord~as|long as I|live:|I~will~praise~my|God while I|
 A2 A2 | G8 |"^Full"!f! G8 | (E2 C2) | G8 || d2 | e2 (dc) | G2 G2 B2 | c8 | %238
w: have my|being.|34~And~so~shall~my|words *|please~him:|my|joy shall *|be in the|Lord.|
"^2nd part"!mp!"^Full" G8 | E2 E2 C2 | G8 |!f! d8 | (e2 dc | G2 B2) | c8 |"^Full"!f! c8 | %246
w: 35~As~for~sinners,~~~~they~shall~be~consum'd~out~of~the~earth,~~~~and~the~ungodly~shall|come to an|end:|praise~thou~the~Lord~O~my~soul,~~~|praise * *|* the|Lord!|Glory~be~to~the~Father|
 G2 G2 E2 | C8 || e2 | (dc) B2 | A2 A2 | G8 |"^Full"!f! G8 | E2 E2 C2 C2 | G8 || d8 | %256
w: and to the|Son:|and|to * the|Ho- ly|Ghost:|As~it~was~in~the~beginning,~is|now and ev- er|shall~be:|world~without|
 e2"^,\n" (dc | G2 B2 | c8) | %259
w: end.~~~ A *||men.|
V:2
 c8 | G2 E2 | C8 || G8 | ^F2 G2 | G2 G2 G2 ^F2 | G8 || G8 | E2 C2 C2 | G8 || G8 | G2 A2 | G2 F2 | %13
w: |||||||||||||
 E8 | c8 | G2 G2 E2 E2 | C8 | G8 | ^F2 G2 | G2 G2 ^F2 | G8 | G8 | E2 C2 | G8 || G8 | G2 G2 A2 A2 | %26
w: |||||||||||||
 G2 F2 | E8 | c8 | G2 G2 E2 E2 | C8 || G8 | ^F2 F2 G2 | G2 G2 ^F2 F2 | G8 | G8 | E2 E2 C2 C2 | %37
w: |||||||||||
 G8 || G2 | G2 A2 | G2 G2 F2 | E8 | c8 | G2 E2 | C8 || G8 | ^F2 G2 | G2 G2 ^F2 | G8 | G8 | %50
w: ||||||||||||8~They~go~up~as~high~as~the~hills,~~~~and~down~to~the|
 E2 E2 C2 | G8 || G8 | G2 A2 A2 | G2 F2 | E8 |] c8 | G2 E2 | C8 | G8 | ^F2 G2 | G2 G2 ^F2 | G8 | %63
w: val- leys be-|neath:|even~unto~the~place~which|thou hast ap-|point- ed|for~them.||||||||
 G8 | E2 C2 C2 C2 | G8 || G2 | G2 A2 | G2 F2 | E8 | [DG]8 | D2 D2 | D8 || ^C8 | D2 E2 | D2 ^C2 | %76
w: |||||||||||||
 D8 | D8 | C2 E2 | D8 || D2 | D2 C2 | D2 C2 | B,8 | [DG]8 | D2 D2 D2 | D8 || ^C8 | D2 E2 E2 | %89
w: |||||||||||||
 D2 D2 ^C2 | D8 | D8 | C2 E2 E2 | D8 || D2 D2 | D2 C2 C2 | D2 D2 C2 | B,8 | [DG]8 | D2 D2 | D8 | %101
w: ||||||||||||
 ^C8 | D2 E2 | D2 D2 ^C2 | D8 | D8 | C2 E2 | D8 || D8 | D2 D2 D2 C2 | D2 C2 | B,8 | [DG]8 | %113
w: ||||||||||||
 D2 D2 D2 | D8 || ^C8 | D2 D2 E2 E2 | D2 D2 ^C2 C2 | D8 | D8 | (C2 E2) | D8 || D8 | D2 C2 | %124
w: |||||||||||
 D2 C2 C2 | B,8 | [DG]8 | D2 D2 | D8 || ^C8 | D2 D2 E2 | D2 ^C2 | D8 | D8 | C2 E2 | D8 || D8 | %137
w: |||||||||||||
 D2 D2 C2 | D2 D2 C2 | B,8 | [DG]8 | D2 D2 D2 | D2 ^C2 | D2 E2 | D2 ^C2 | D8 | D8 | C2 E2 | D8 || %149
w: ||||||||||||
 D2 | D2 C2 | D2 C2 C2 | B,8 | D8 | C2 E2 E2 | D2 | D2 D2 D2 | D2 D2 C2 | D2 C2 | B,8 | E8 | %161
w: ||||||||||||
 C2 C2 C2 D2 D2 | E8 || F8 | A2 G2 | F2 F2 F2 | E8 || C8 | C2 C2 | C8 | D8 | C2 D2 | (C2 B,2) | %173
w: ||||||||||||
 C8 |] C8 | C2 | C2 C2 C2 C2 | C8 || D8 | C2 D2 | C2 C2 B,2 | C8 | E8 | C2 D2 D2 | E8 || F8 | %186
w: |||||||||||||
 A2 G2 | F2 F2 F2 | E8 | C8 | C2 C2 | C8 || D8 | C2 D2 D2 | C2 B,2 | C8 |] E8 | C2 D2 D2 | E8 | %199
w: |||||||||||||
 F8 | A2 G2 | F2 F2 F2 | E8 | C8 | C2 C2 | C8 || D8 | C2 D2 | C2 C2 B,2 | C8 |] c8 | G2 E2 | C8 | %213
w: ||||||||||||||
 G2 | ^F2 F2 G2 | G2 G2 ^F2 | G8 | G8 | E2 E2 C2 C2 | G8 || G8 | G2 G2 A2 | G2 F2 | E8 | c8 | %225
w: ||||||||||||
 G2 G2 E2 | C8 || G8 | ^F2 F2 G2 | G2 ^F2 | G8 | G8 | (E2 C2) | G8 || G2 | G2 A2 | G2 G2 F2 | E8 | %238
w: |||||||||||||
 G8 | E2 E2 C2 | G8 | G8 | (G2 A2 | G2 F2) | E8 | c8 | G2 G2 E2 | C8 || G2 | ^F2 G2 | G2 ^F2 | G8 | %252
w: ||||||||||||||
 G8 | E2 E2 C2 C2 | G8 || G8 | G2 (A2 | G2 F2 | E8) | %259
w: |||||||
V:3
 C8 | G,2 E,2 | C,8 || C8 | A,2 B,2 | D2 D2 D2 (DC) | B,8 || G,8 | E,2 C,2 C,2 | G,8 || F8 | %11
 E2 F2 | E2 D2 | C8 | C8 | G,2 G,2 E,2 E,2 | C,8 | C8 | A,2 B,2 | D2 D2 (DC) | B,8 | G,8 | %22
 E,2 C,2 | G,8 || F8 | E2 E2 F2 F2 | E2 D2 | C8 | C8 | G,2 G,2 E,2 E,2 | C,8 || C8 | A,2 A,2 B,2 | %33
 D2 D2 D2 C2 | B,8 | G,8 | E,2 E,2 C,2 C,2 | G,8 || F2 | E2 F2 | E2 E2 D2 | C8 | C8 | G,2 E,2 | %44
 C,8 || C8 | A,2 B,2 | D2 D2 (DC) | B,8 | G,8 | E,2 E,2 C,2 | G,8 || F8 | E2 F2 F2 | E2 D2 | C8 |] %56
 C8 | G,2 E,2 | C,8 | C8 | A,2 B,2 | D2 D2 (DC) | B,8 | G,8 | E,2 C,2 C,2 C,2 | G,8 || F2 | E2 F2 | %68
 E2 D2 | C8 | B,8 | A,2 ^F,2 | G,8 || G,8 | A,2 B,2 | A,2 G,2 | ^F,8 | G,8 | G,2 C2 | A,8 || ^F,2 | %81
 G,2 G,2 | G,2 ^F,2 | G,8 | B,8 | A,2 ^F,2 F,2 | G,8 || G,8 | A,2 B,2 B,2 | A,2 A,2 G,2 | ^F,8 | %91
 G,8 | G,2 C2 C2 | A,8 || ^F,2 F,2 | G,2 G,2 G,2 | G,2 G,2 ^F,2 | G,8 | B,8 | A,2 ^F,2 | G,8 | %101
 G,8 | A,2 B,2 | A,2 A,2 G,2 | ^F,8 | G,8 | G,2 C2 | A,8 || ^F,8 | G,2 G,2 G,2 G,2 | G,2 ^F,2 | %111
 G,8 | B,8 | A,2 ^F,2 F,2 | G,8 || G,8 | A,2 A,2 B,2 B,2 | A,2 A,2 G,2 G,2 | ^F,8 | G,8 | %120
 (G,2 C2) | A,8 || ^F,8 | G,2 G,2 | G,2 ^F,2 F,2 | G,8 | B,8 | A,2 ^F,2 | G,8 || G,8 | %130
 A,2 A,2 B,2 | A,2 G,2 | ^F,8 | G,8 | G,2 C2 | A,8 || ^F,8 | G,2 G,2 G,2 | G,2 G,2 ^F,2 | G,8 | %140
 B,8 | A,2 A,2 ^F,2 | G,2 G,2 | A,2 B,2 | A,2 G,2 | ^F,8 | G,8 | G,2 C2 | A,8 || ^F,2 | G,2 G,2 | %151
 G,2 ^F,2 F,2 | G,8 | G,8 | G,2 C2 C2 | A,2 | ^F,2 F,2 F,2 | G,2 G,2 G,2 | G,2 ^F,2 | G,8 | G,8 | %161
 E2 E2 E2 D2 D2 | C8 || A,8 | B,2 ^C2 | D2 D2 =C2 | B,8 || C8 | _B,2 B,2 | A,8 | =B,8 | C2 A,2 | %172
 (G,2 F,2) | E,8 |] C8 | C2 | _B,2 B,2 B,2 B,2 | A,8 || =B,8 | C2 A,2 | G,2 G,2 F,2 | E,8 | G,8 | %183
 E2 D2 D2 | C8 || A,8 | B,2 ^C2 | D2 D2 =C2 | B,8 | C8 | _B,2 B,2 | A,8 || =B,8 | C2 A,2 A,2 | %194
 G,2 F,2 | E,8 |] G,8 | E2 D2 D2 | C8 | A,8 | B,2 ^C2 | D2 =C2 C2 | B,8 | C8 | _B,2 B,2 | A,8 || %206
 =B,8 | C2 A,2 | G,2 G,2 F,2 | E,8 |] C8 | G,2 E,2 | C,8 | C2 | A,2 A,2 B,2 | D2 D2 (DC) | B,8 | %217
 G,8 | E,2 E,2 C,2 C,2 | G,8 || F8 | E2 E2 F2 | E2 D2 | C8 | C8 | G,2 G,2 E,2 | C,8 || C8 | %228
 A,2 A,2 B,2 | D2 (DC) | B,8 | G,8 | (E,2 C,2) | G,8 || F2 | E2 F2 | E2 E2 D2 | C8 | G,8 | %239
 E,2 E,2 C,2 | G,8 | F8 | (E2 F2 | E2 D2) | C8 | C8 | G,2 G,2 E,2 | C,8 || C2 | A,2 B,2 | D2 (DC) | %251
 B,8 | G,8 | E,2 E,2 C,2 C,2 | G,8 || F8 | E2 (F2 | E2 D2 | C8) | %259
V:4
 C8 | G,2 E,2 | C,8 || C,8 | D,2 G,2 | D,2 D,2 D,2 D,2 | G,8 || G,8 | E,2 C,2 C,2 | G,8 || B,8 | %11
w: |||||||||||
 C2 F,2 | G,2 G,,2 | C,8 | C8 | G,2 G,2 E,2 E,2 | C,8 | C,8 | D,2 G,2 | D,2 D,2 D,2 | G,8 | G,8 | %22
w: |||||||||||
 E,2 C,2 | G,8 || B,8 | C2 C2 F,2 F,2 | G,2 G,,2 | C,8 | C8 | G,2 G,2 E,2 E,2 | C,8 || C,8 | %32
w: ||||||||||
 D,2 D,2 G,2 | D,2 D,2 D,2 D,2 | G,8 | G,8 | E,2 E,2 C,2 C,2 | G,8 || B,2 | C2 F,2 | G,2 G,2 G,,2 | %41
w: |||||||||
 C,8 | C8 | G,2 E,2 | C,8 || C,8 | D,2 G,2 | D,2 D,2 D,2 | G,8 | G,8 | E,2 E,2 C,2 | G,8 || B,8 | %53
w: ||||||||||||
 C2 F,2 F,2 | G,2 G,,2 | C,8 |] C8 | G,2 E,2 | C,8 | C,8 | D,2 G,2 | D,2 D,2 D,2 | G,8 | G,8 | %64
w: |||||||||||
 E,2 C,2 C,2 C,2 | G,8 || B,2 | C2 F,2 | G,2 G,,2 | C,8 | G,8 | ^F,2 D,2 | G,8 || E,8 | ^F,2 G,2 | %75
w: |||||||||||
 A,2 A,,2 | D,8 | B,,8 | C,2 A,,2 | D,8 || (D,C,) | B,,2 E,2 | D,2 D,2 | G,,8 | G,8 | %85
w: ||||||||||
 ^F,2 D,2 D,2 | G,8 || E,8 | ^F,2 G,2 G,2 | A,2 A,2 A,,2 | D,8 | B,,8 | C,2 A,,2 A,,2 | D,8 || %94
w: |||||||||
 D,2 C,2 | B,,2 E,2 E,2 | D,2 D,2 D,2 | G,,8 | G,8 | ^F,2 D,2 | G,8 | E,8 | ^F,2 G,2 | %103
w: |||||||||
 A,2 A,2 A,,2 | D,8 | B,,8 | C,2 A,,2 | D,8 || D,6 C,2 | B,,2 B,,2 B,,2 E,2 | D,2 D,2 | G,,8 | %112
w: ||16~The~trees~of~the~Lord~also~are|full of|sap:|even~the~cedars of|Li- ba- nus which|he hath|planted.|
 G,8 | ^F,2 D,2 D,2 | G,8 || E,8 | ^F,2 F,2 G,2 G,2 | A,2 A,2 A,,2 A,,2 | D,8 | B,,8 | (C,2 A,,2) | %121
w: |||||||18~The~high~hills~are~a~refuge~for~the|wild *|
 D,8 || D,6 C,2 | B,,2 E,2 | D,2 D,2 D,2 | G,,8 | G,8 | ^F,2 D,2 | G,8 || E,8 | ^F,2 F,2 G,2 | %131
w: goats:|and~so~are the|ston- y|rocks for the|conies.||||||
 A,2 A,,2 | D,8 | B,,8 | C,2 A,,2 | D,8 || D,6 C,2 | B,,2 B,,2 E,2 | D,2 D,2 D,2 | G,,8 | G,8 | %141
w: ||20~Thou~makest~darkness~that~it|may be|night:|wherein~all the|beasts of the|for- est do|move.||
 ^F,2 F,2 D,2 | G,2 E,2 | ^F,2 G,2 | A,2 A,,2 | D,8 | B,,8 | C,2 A,,2 | D,8 || (D,C,) | B,,2 E,2 | %151
w: ||||||||||
 D,2 D,2 D,2 | G,,8 | B,,8 | C,2 A,,2 A,,2 | D,2 | D,2 D,2 C,2 | B,,2 B,,2 E,2 | D,2 D,2 | G,,8 | %160
w: ||23~Man~goeth|forth to his|work|and to his|la- bour un-|til the|evening.|
 C,8 | C2 C2 C2 B,2 B,2 | A,8 || F,8 | F,2 E,2 | D,2 D,2 D,2 | E,8 || A,8 | G,2 G,2 | [F,A,]8 | %170
w: ||||||||||
 [F,B,]8 | E,2 F,2 | (G,2 G,,2) | C,8 |] A,8 | A,2 | G,2 G,2 G,2 G,2 | [F,A,]8 || [F,B,]8 | %179
w: |||||||||
 E,2 F,2 | G,2 G,2 G,,2 | C,8 | C,8 | C2 B,2 B,2 | A,8 || F,8 | F,2 E,2 | D,2 D,2 D,2 | E,8 | A,8 | %190
w: |||||||||||
 G,2 G,2 | [F,A,]8 || [F,B,]8 | E,2 F,2 F,2 | G,2 G,,2 | C,8 |] C,8 | C2 B,2 B,2 | A,8 | F,8 | %200
w: ||||||||||
 F,2 E,2 | D,2 D,2 D,2 | E,8 | A,8 | G,2 G,2 | [F,A,]8 || [F,B,]8 | E,2 F,2 | G,2 G,2 G,,2 | C,8 |] %210
w: ||||||||||
 C8 | G,2 E,2 | C,8 | C,2 | D,2 D,2 G,2 | D,2 D,2 D,2 | G,8 | G,8 | E,2 E,2 C,2 C,2 | G,8 || B,8 | %221
w: |||||||||||
 C2 C2 F,2 | G,2 G,,2 | C,8 | C8 | G,2 G,2 E,2 | C,8 || C,8 | D,2 D,2 G,2 | D,2 D,2 | G,8 | G,8 | %232
w: |||||||||||
 (E,2 C,2) | G,8 || B,2 | C2 F,2 | G,2 G,2 G,,2 | C,8 | G,8 | E,2 E,2 C,2 | G,8 | B,8 | (C2 F,2 | %243
w: |||||||||||
 G,2 G,,2) | C,8 | C8 | G,2 G,2 E,2 | C,8 || C,2 | D,2 G,2 | D,2 D,2 | G,8 | G,8 | %253
w: ||||||||||
 E,2 E,2 C,2 C,2 | G,8 || B,8 | C2 (F,2 | G,2 G,,2 | C,8) | %259
w: ||||||

